X: 15000
T: Gentle Maiden, The
R: waltz
M: 3/4
K: Gmajor
G2 GA G2|F2 (3EFE D2|d2 B2 d2|e3 f g2|
d2 c2 B2|A4 G2|1 E6|D4:|
2 G6-|G4 d2||
d2 e2 f2|g2 (3fgf g2|e3 f g2|g2 (3fgf e2|
d3 c B2|A4 G2|E6|F4 D2|
G3 A G2|F2 E2 D2|d3 B d2|e2 f2 g2|
d2 c3 B|A4 G2|G6-|G4||

